X:54
T:Drummer Boy - Fone
%%VWML:SBG-1-2-623-0
F:http://www.vwml.org/record/SBG/1/2/623
Z:Original Sibelius transcriptions by M. & S. Graebe
M:3/4
I:linebreak $
K:G
V:1 treble nm="P1"
V:1
 D2 | GB g3 a | gf e2 A2 | f2 e2 d ^c | ed B2 D2 |$ GB g3 a | gf e2 c2 | fe d2 c2 | BA G4 | %9

